app/img/advantages-6.svg

<svg width="102" height="102" viewBox="0 0 102 102" fill="none" xmlns="http://www.w3.org/2000/svg">
<g clip-path="url(#clip0)">
<path d="M1.49414 74.4743C2.31903 74.4743 2.98828 73.8059 2.98828 72.9802V29.4626H91.2679V45.8865C91.2679 46.7121 91.9371 47.3806 92.762 47.3806C93.5877 47.3806 94.2561 46.7121 94.2561 45.8865V16.3577C94.2561 11.3485 90.1807 7.27304 85.1722 7.27304H81.254V5.42249C81.254 3.42096 79.626 1.79297 77.6245 1.79297H74.8487C72.8479 1.79297 71.2199 3.42096 71.2199 5.42249V7.27304H61.3103V5.42249C61.3103 3.42096 59.6824 1.79297 57.6808 1.79297H54.905C52.9042 1.79297 51.2763 3.42096 51.2763 5.42249V7.27304H41.3659V5.42249C41.3659 3.42096 39.7379 1.79297 37.7364 1.79297H34.9613C32.9598 1.79297 31.3318 3.42096 31.3318 5.42249V7.27304H21.4222V5.42249C21.4222 3.42096 19.7942 1.79297 17.7927 1.79297H15.0177C13.0161 1.79297 11.3882 3.42096 11.3882 5.42249V7.27304H9.08469C4.07542 7.27304 0 11.3485 0 16.3577V72.9802C0 73.8059 0.66925 74.4743 1.49414 74.4743ZM74.2082 5.42249C74.2082 5.06918 74.4961 4.78125 74.8494 4.78125H77.6253C77.9786 4.78125 78.2657 5.06918 78.2657 5.42249V12.6815C78.2657 13.0348 77.9786 13.3228 77.6253 13.3228H74.8494C74.4961 13.3228 74.2082 13.0356 74.2082 12.6815V5.42249ZM54.2645 5.42249C54.2645 5.06918 54.5517 4.78125 54.905 4.78125H57.6808C58.0341 4.78125 58.3221 5.06918 58.3221 5.42249V12.6815C58.3221 13.0348 58.0341 13.3228 57.6808 13.3228H54.905C54.5517 13.3228 54.2645 13.0356 54.2645 12.6815V5.42249ZM34.3201 5.42249C34.3201 5.06918 34.608 4.78125 34.9613 4.78125H37.7372C38.0905 4.78125 38.3784 5.06918 38.3784 5.42249V12.6815C38.3784 13.0348 38.0905 13.3228 37.7372 13.3228H34.9613C34.608 13.3228 34.3201 13.0356 34.3201 12.6815V5.42249ZM14.3764 5.42249C14.3764 5.06918 14.6644 4.78125 15.0177 4.78125H17.7935C18.1468 4.78125 18.434 5.06918 18.434 5.42249V12.6815C18.434 13.0348 18.1468 13.3228 17.7935 13.3228H15.0177C14.6644 13.3228 14.3764 13.0356 14.3764 12.6815V5.42249ZM9.08469 10.2613H11.3882V12.6815C11.3882 14.683 13.0161 16.311 15.0177 16.311H17.7935C19.7942 16.311 21.4222 14.683 21.4222 12.6815V10.2613H31.3326V12.6815C31.3326 14.683 32.9606 16.311 34.9613 16.311H37.7372C39.7387 16.311 41.3667 14.683 41.3667 12.6815V10.2613H51.2763V12.6815C51.2763 14.683 52.9042 16.311 54.9058 16.311H57.6816C59.6824 16.311 61.3103 14.683 61.3103 12.6815V10.2613H71.2199V12.6815C71.2199 14.683 72.8479 16.311 74.8494 16.311H77.6253C79.626 16.311 81.254 14.683 81.254 12.6815V10.2613H85.1722C88.534 10.2613 91.2686 12.9959 91.2686 16.3577V26.4743H2.98828V16.3577C2.98828 12.9959 5.72287 10.2613 9.08469 10.2613Z" fill="white"/>
<path d="M16.9157 88.3699H3.8871C3.39139 88.3699 2.98828 87.9668 2.98828 87.471V79.7894C2.98828 78.9638 2.31903 78.2953 1.49414 78.2953C0.66925 78.2953 0 78.9638 0 79.7894V87.471C0 89.6142 1.74394 91.3581 3.8871 91.3581H16.9157C17.7406 91.3581 18.4098 90.6889 18.4098 89.864C18.4098 89.0383 17.7406 88.3699 16.9157 88.3699Z" fill="white"/>
<path d="M16.8659 33.8197H11.6722C10.8474 33.8197 10.1781 34.489 10.1781 35.3138C10.1781 36.1395 10.8474 36.808 11.6722 36.808H16.8659C17.6908 36.808 18.3601 36.1395 18.3601 35.3138C18.3601 34.489 17.6908 33.8197 16.8659 33.8197Z" fill="white"/>
<path d="M27.6331 36.808H32.8268C33.6516 36.808 34.3209 36.1395 34.3209 35.3138C34.3209 34.489 33.6516 33.8197 32.8268 33.8197H27.6331C26.8082 33.8197 26.1389 34.489 26.1389 35.3138C26.1389 36.1395 26.8082 36.808 27.6331 36.808Z" fill="white"/>
<path d="M43.5939 36.808H48.7868C49.6117 36.808 50.2809 36.1395 50.2809 35.3138C50.2809 34.489 49.6117 33.8197 48.7868 33.8197H43.5939C42.7682 33.8197 42.0997 34.489 42.0997 35.3138C42.0997 36.1395 42.7682 36.808 43.5939 36.808Z" fill="white"/>
<path d="M59.554 36.808H64.7477C65.5725 36.808 66.2418 36.1395 66.2418 35.3138C66.2418 34.489 65.5725 33.8197 64.7477 33.8197H59.554C58.7291 33.8197 58.0598 34.489 58.0598 35.3138C58.0598 36.1395 58.7291 36.808 59.554 36.808Z" fill="white"/>
<path d="M80.7077 33.8197H75.5148C74.6891 33.8197 74.0206 34.489 74.0206 35.3138C74.0206 36.1395 74.6891 36.808 75.5148 36.808H80.7077C81.5326 36.808 82.2019 36.1395 82.2019 35.3138C82.2019 34.489 81.5326 33.8197 80.7077 33.8197Z" fill="white"/>
<path d="M16.8659 41.3333H11.6722C10.8474 41.3333 10.1781 42.0017 10.1781 42.8274C10.1781 43.6531 10.8474 44.3215 11.6722 44.3215H16.8659C17.6908 44.3215 18.3601 43.6531 18.3601 42.8274C18.3601 42.0017 17.6908 41.3333 16.8659 41.3333Z" fill="white"/>
<path d="M27.6331 44.3215H32.8268C33.6516 44.3215 34.3209 43.6531 34.3209 42.8274C34.3209 42.0017 33.6516 41.3333 32.8268 41.3333H27.6331C26.8082 41.3333 26.1389 42.0017 26.1389 42.8274C26.1389 43.6531 26.8082 44.3215 27.6331 44.3215Z" fill="white"/>
<path d="M43.5939 44.3215H48.7868C49.6117 44.3215 50.2809 43.6531 50.2809 42.8274C50.2809 42.0017 49.6117 41.3333 48.7868 41.3333H43.5939C42.7682 41.3333 42.0997 42.0017 42.0997 42.8274C42.0997 43.6531 42.7682 44.3215 43.5939 44.3215Z" fill="white"/>
<path d="M59.554 44.3215H64.7477C65.5725 44.3215 66.2418 43.6531 66.2418 42.8274C66.2418 42.0017 65.5725 41.3333 64.7477 41.3333H59.554C58.7291 41.3333 58.0598 42.0017 58.0598 42.8274C58.0598 43.6531 58.7291 44.3215 59.554 44.3215Z" fill="white"/>
<path d="M80.7077 41.3333H75.5148C74.6891 41.3333 74.0206 42.0017 74.0206 42.8274C74.0206 43.6531 74.6891 44.3215 75.5148 44.3215H80.7077C81.5326 44.3215 82.2019 43.6531 82.2019 42.8274C82.2019 42.0017 81.5326 41.3333 80.7077 41.3333Z" fill="white"/>
<path d="M27.6697 73.6542L35.352 81.3366C36.4633 82.4478 37.9403 83.0595 39.5123 83.0595C41.0843 83.0595 42.562 82.4478 43.6725 81.3366L64.7111 60.298C67.0053 58.0038 67.0053 54.2708 64.7111 51.9767C62.417 49.6826 58.684 49.6826 56.3899 51.9767L39.5123 68.8543L35.9902 65.3329C33.6968 63.0388 29.9638 63.0388 27.6689 65.3329C25.3755 67.627 25.3755 71.3601 27.6697 73.6542ZM29.7825 67.4457C30.3467 66.8815 31.0883 66.599 31.8299 66.599C32.5715 66.599 33.3132 66.8815 33.8774 67.4457L38.4555 72.0239C39.0391 72.6075 39.9847 72.6075 40.5683 72.0239L58.5027 54.0903C59.6326 52.9611 61.4692 52.9611 62.5975 54.0895C63.7267 55.2187 63.7267 57.056 62.5975 58.1852L41.5597 79.223C41.0127 79.77 40.2858 80.0712 39.5123 80.0712C38.7388 80.0712 38.0119 79.77 37.4649 79.223L29.7825 71.5406C28.6533 70.4114 28.6533 68.5749 29.7825 67.4457Z" fill="white"/>
<path d="M94.2561 64.6185V52.6957C94.2561 51.87 93.5876 51.2015 92.762 51.2015C91.9371 51.2015 91.2678 51.87 91.2678 52.6957V62.7126C88.5434 61.3002 85.4516 60.501 82.1769 60.501C71.2464 60.501 62.3539 69.3935 62.3539 80.324C62.3539 83.187 62.9648 85.9092 64.0612 88.3698H23.7241C22.8992 88.3698 22.23 89.0383 22.23 89.864C22.23 90.6889 22.8992 91.3581 23.7241 91.3581H65.7165C69.2783 96.6553 75.3272 100.147 82.1769 100.147C93.1075 100.147 102 91.2546 102 80.324C102 73.9366 98.9619 68.2456 94.2561 64.6185ZM82.1769 97.1588C72.8938 97.1588 65.3422 89.6072 65.3422 80.324C65.3422 71.0409 72.8946 63.4893 82.1769 63.4893C91.4593 63.4893 99.0117 71.0409 99.0117 80.324C99.0117 89.6072 91.4593 97.1588 82.1769 97.1588Z" fill="white"/>
<path d="M82.177 65.6481C74.0845 65.6481 67.501 72.2324 67.501 80.3241C67.501 88.4166 74.0845 95.0001 82.177 95.0001C90.2695 95.0001 96.8523 88.4166 96.8523 80.3241C96.8523 72.2324 90.2687 65.6481 82.177 65.6481ZM83.5147 91.9325C83.6136 91.7325 83.6712 91.5084 83.6712 91.2702V89.45C83.6712 88.6251 83.0019 87.9559 82.177 87.9559C81.3521 87.9559 80.6829 88.6251 80.6829 89.45V91.2702C80.6829 91.5084 80.7397 91.7325 80.8393 91.9325C75.4619 91.3169 71.1842 87.0392 70.5686 81.6618C70.7679 81.7614 70.9928 81.8182 71.2309 81.8182H73.0503C73.876 81.8182 74.5444 81.1498 74.5444 80.3241C74.5444 79.4984 73.876 78.83 73.0503 78.83H71.2309C70.9928 78.83 70.7679 78.8876 70.5686 78.9864C71.1842 73.609 75.4619 69.3313 80.8393 68.7157C80.7397 68.9157 80.6829 69.1398 80.6829 69.378V71.1982C80.6829 72.0238 81.3521 72.6923 82.177 72.6923C83.0019 72.6923 83.6712 72.0238 83.6712 71.1982V69.378C83.6712 69.1398 83.6136 68.9157 83.5147 68.7157C88.8921 69.3313 93.1698 73.609 93.7854 78.9864C93.5854 78.8876 93.3613 78.83 93.1231 78.83H91.3029C90.4781 78.83 89.8088 79.4984 89.8088 80.3241C89.8088 81.1498 90.4781 81.8182 91.3029 81.8182H93.1231C93.3613 81.8182 93.5854 81.7614 93.7854 81.6618C93.1691 87.0392 88.8921 91.3169 83.5147 91.9325Z" fill="white"/>
<path d="M85.4702 78.8299H83.671V77.2976C83.671 76.4727 83.0018 75.8035 82.1769 75.8035C81.3512 75.8035 80.6827 76.4727 80.6827 77.2976V80.324C80.6827 81.1497 81.3512 81.8182 82.1769 81.8182H85.4702C86.2951 81.8182 86.9644 81.1497 86.9644 80.324C86.9644 79.4984 86.2951 78.8299 85.4702 78.8299Z" fill="white"/>
</g>
<defs>
<clipPath id="clip0">
<rect width="102" height="102" fill="white"/>
</clipPath>
</defs>
</svg>

<svg width="102" height="102" viewBox="0 0 102 102" fill="none" xmlns="http://www.w3.org/2000/svg"><g clip-path="url(#a)" fill="#fff"><path d="M1.494 74.474c.825 0 1.494-.668 1.494-1.494V29.463h88.28v16.423a1.494 1.494 0 1 0 2.988 0V16.358c0-5.01-4.075-9.085-9.084-9.085h-3.918v-1.85a3.633 3.633 0 0 0-3.63-3.63H74.85a3.634 3.634 0 0 0-3.63 3.63v1.85h-9.91v-1.85a3.633 3.633 0 0 0-3.63-3.63h-2.775c-2 0-3.629 1.628-3.629 3.63v1.85h-9.91v-1.85a3.633 3.633 0 0 0-3.63-3.63h-2.775a3.633 3.633 0 0 0-3.63 3.63v1.85h-9.909v-1.85a3.633 3.633 0 0 0-3.63-3.63h-2.774a3.633 3.633 0 0 0-3.63 3.63v1.85H9.085C4.075 7.273 0 11.348 0 16.358V72.98c0 .826.67 1.494 1.494 1.494zM74.208 5.422c0-.353.288-.64.641-.64h2.776a.64.64 0 0 1 .64.64v7.26a.642.642 0 0 1-.64.64H74.85a.642.642 0 0 1-.64-.64v-7.26zm-19.944 0c0-.353.288-.64.641-.64h2.776c.353 0 .641.287.641.64v7.26a.642.642 0 0 1-.641.64h-2.776a.641.641 0 0 1-.64-.64v-7.26zm-19.944 0c0-.353.288-.64.641-.64h2.776c.353 0 .641.287.641.64v7.26a.642.642 0 0 1-.64.64H34.96a.642.642 0 0 1-.64-.64v-7.26zm-19.944 0c0-.353.288-.64.642-.64h2.776a.64.64 0 0 1 .64.64v7.26a.642.642 0 0 1-.64.64h-2.776a.642.642 0 0 1-.642-.64v-7.26zm-5.291 4.84h2.303v2.42a3.633 3.633 0 0 0 3.63 3.629h2.776c2 0 3.628-1.628 3.628-3.63v-2.42h9.91v2.42a3.633 3.633 0 0 0 3.63 3.63h2.775a3.633 3.633 0 0 0 3.63-3.63v-2.42h9.91v2.42a3.633 3.633 0 0 0 3.629 3.63h2.776c2 0 3.628-1.628 3.628-3.63v-2.42h9.91v2.42a3.633 3.633 0 0 0 3.63 3.63h2.775a3.633 3.633 0 0 0 3.629-3.63v-2.42h3.918a6.103 6.103 0 0 1 6.097 6.097v10.116H2.989V16.358a6.103 6.103 0 0 1 6.096-6.097zm7.831 78.108H3.887a.9.9 0 0 1-.899-.899v-7.682a1.494 1.494 0 1 0-2.988 0v7.682a3.892 3.892 0 0 0 3.887 3.887h13.029a1.494 1.494 0 0 0 0-2.988z"/><path d="M16.866 33.82h-5.194a1.495 1.495 0 0 0 0 2.988h5.194a1.494 1.494 0 1 0 0-2.988zm10.767 2.988h5.194a1.494 1.494 0 1 0 0-2.988h-5.194a1.495 1.495 0 0 0 0 2.988zm15.961 0h5.193a1.494 1.494 0 1 0 0-2.988h-5.193a1.494 1.494 0 1 0 0 2.988zm15.96 0h5.194a1.494 1.494 0 1 0 0-2.988h-5.194a1.495 1.495 0 0 0 0 2.988zm21.154-2.988h-5.193a1.494 1.494 0 1 0 0 2.988h5.193a1.494 1.494 0 1 0 0-2.988zm-63.842 7.513h-5.194a1.494 1.494 0 1 0 0 2.989h5.194a1.494 1.494 0 1 0 0-2.989zm10.767 2.989h5.194a1.494 1.494 0 1 0 0-2.989h-5.194a1.494 1.494 0 1 0 0 2.989zm15.961 0h5.193a1.494 1.494 0 1 0 0-2.989h-5.193a1.494 1.494 0 1 0 0 2.989zm15.96 0h5.194a1.494 1.494 0 1 0 0-2.989h-5.194a1.494 1.494 0 1 0 0 2.989zm21.154-2.989h-5.193a1.494 1.494 0 1 0 0 2.989h5.193a1.494 1.494 0 1 0 0-2.989zM27.67 73.654l7.682 7.683a5.844 5.844 0 0 0 4.16 1.722c1.572 0 3.05-.611 4.16-1.722l21.04-21.039a5.89 5.89 0 0 0 0-8.321 5.89 5.89 0 0 0-8.322 0L39.512 68.854l-3.522-3.521a5.89 5.89 0 0 0-8.321 0 5.891 5.891 0 0 0 0 8.321zm2.112-6.208a2.887 2.887 0 0 1 2.048-.847c.742 0 1.483.282 2.047.847l4.578 4.578c.584.584 1.53.584 2.113 0L58.503 54.09a2.899 2.899 0 0 1 4.094 0 2.9 2.9 0 0 1 0 4.095L41.56 79.223a2.876 2.876 0 0 1-2.048.848c-.773 0-1.5-.301-2.047-.848l-7.683-7.682a2.898 2.898 0 0 1 0-4.095z"/><path d="M94.256 64.618V52.697a1.494 1.494 0 1 0-2.988 0v10.017a19.697 19.697 0 0 0-9.091-2.212c-10.93 0-19.823 8.893-19.823 19.823 0 2.863.61 5.585 1.707 8.046H23.724a1.494 1.494 0 1 0 0 2.988h41.992c3.562 5.297 9.611 8.789 16.46 8.789 10.931 0 19.824-8.892 19.824-19.823 0-6.387-3.038-12.078-7.744-15.706zm-12.08 32.54c-9.282 0-16.834-7.55-16.834-16.834 0-9.283 7.553-16.835 16.835-16.835s16.835 7.552 16.835 16.835c0 9.283-7.553 16.835-16.835 16.835z"/><path d="M82.177 65.648c-8.093 0-14.676 6.584-14.676 14.676C67.501 88.417 74.085 95 82.177 95s14.675-6.583 14.675-14.676c0-8.092-6.583-14.676-14.675-14.676zm1.338 26.285c.099-.2.156-.425.156-.663v-1.82a1.495 1.495 0 0 0-2.988 0v1.82c0 .238.057.463.156.663-5.377-.616-9.655-4.894-10.27-10.271.199.1.424.156.662.156h1.82a1.493 1.493 0 1 0 0-2.988h-1.82c-.238 0-.463.058-.662.156.615-5.377 4.893-9.655 10.27-10.27-.1.2-.156.424-.156.662v1.82a1.494 1.494 0 1 0 2.988 0v-1.82a1.49 1.49 0 0 0-.156-.662c5.377.615 9.655 4.893 10.27 10.27a1.49 1.49 0 0 0-.662-.156h-1.82a1.494 1.494 0 1 0 0 2.988h1.82c.238 0 .462-.057.662-.156-.616 5.377-4.893 9.655-10.27 10.27z"/><path d="M85.47 78.83h-1.799v-1.532a1.494 1.494 0 0 0-2.988 0v3.026c0 .826.668 1.494 1.494 1.494h3.293a1.494 1.494 0 1 0 0-2.988z"/></g><defs><clipPath id="a"><path fill="#fff" d="M0 0h102v102H0z"/></clipPath></defs></svg>
